X:1
T:Dillon Brown [3]
M:C
L:1/8
R:Reel
B:Stephen Grier music manuscript  collection (Book 2, c. 1883, No. 103, p. 22)
B:  http://grier.itma.ie/book-two#?c=0&m=0&s=0&cv=21&z=-230.5038%2C169.9416%2C3070.4826%2C1234.6572
N:Stephen Grier (c. 1824-1894) was a piper and fiddler from
N:Newpark, Bohey, Gortletteragh, south Co. Leitrim.
Z:AK/Fiddler’s Companion
K:G
GEDE G2 Bd|edBd efge|d2 BG dGBG|AGEG AcBA|
GEDE G2 Bd|edBd efge|dedB dedB|AGAB G3||
B2 Gc B2 GB|A2 Fc A2 Fc|B2 Gc B2 GB|AGAB c2 BA|
BBGc BBGB|AAFc AAFA|G2 Bd efge|dBGB c2 BA||

